assets/images/simple-illustrations/simple-illustration__smallrocket.svg

<svg xmlns="http://www.w3.org/2000/svg" viewBox="0 0 35 34"><path fill="#F25730" d="M27.9924 6.34188C28.1041 7.82157 27.7626 9.34422 26.7768 10.7079C25.7286 10.2505 24.1049 8.60759 23.6259 7.56171C24.9898 6.57382 26.5126 6.23235 27.9946 6.34188H27.9924Z"/><path fill="#FFFAF0" d="M19.1972 18.3653L18.4068 19.1513C18.381 19.1771 18.2414 19.0848 18.0352 18.9129C17.3737 18.361 16.0162 17.0059 15.4449 16.3251C15.2581 16.1039 15.155 15.9557 15.1829 15.9278L15.969 15.1353L18.3745 12.7107L22.7904 8.2673C23.0611 8.00315 23.3403 7.76691 23.6259 7.55859C24.1049 8.60447 25.7286 10.2474 26.7768 10.7048C26.5706 10.9926 26.3343 11.2718 26.068 11.5424L21.622 15.9557L19.1972 18.3632V18.3653ZM19.5086 15.7044C20.3892 14.8239 19.5086 13.9434 18.628 14.8239L17.1417 16.3101C17.3479 16.5162 17.8118 16.9801 18.0223 17.1906L19.5086 15.7044Z"/><path fill="#F25730" d="M21.6199 15.9592C23.0031 17.2477 23.3252 18.7296 22.5241 20.4111C22.2299 20.9266 22.0065 21.1757 21.4416 20.6109L19.195 18.3645L21.6199 15.957V15.9592Z"/><path fill="#F25730" d="M18.628 14.8247C19.5108 13.9442 20.3914 14.8247 19.5086 15.7052L18.0224 17.1913C17.814 16.9809 17.3501 16.517 17.1418 16.3108L18.628 14.8247Z"/><path fill="#F25730" d="M18.3746 12.7137L15.9691 15.1383L15.9454 15.1147L13.6967 12.8662C13.1318 12.3035 13.3809 12.078 13.8964 11.7859C15.5781 10.9849 17.058 11.307 18.3488 12.6879L18.3746 12.7137Z"/><path fill="#002140" d="M18.0329 18.914C17.7194 19.2469 17.4101 19.3092 17.1051 19.0966C16.4264 18.5468 15.8121 17.9304 15.2601 17.2518C15.2408 17.2217 15.2236 17.1917 15.2086 17.1616C15.0733 16.876 15.1506 16.5989 15.4384 16.3262C16.0119 17.0048 17.3671 18.3621 18.0286 18.914H18.0329Z"/><path fill="#8DC8FF" d="M13.338 19.4827C13.2671 19.4011 13.1963 19.3173 13.1254 19.2336C12.9729 19.0489 12.8548 18.8642 12.8118 18.6945C12.756 18.4841 12.8118 18.2972 13.0481 18.1662L15.1851 17.1762L15.2109 17.1611C15.2259 17.1912 15.2431 17.2213 15.2624 17.2513C15.8123 17.93 16.4287 18.5442 17.1074 19.0961L16.1173 21.233C15.9841 21.4692 15.7994 21.5251 15.5889 21.4692C15.4192 21.4263 15.2345 21.3081 15.0498 21.1557C14.9596 21.0826 14.8715 21.0075 14.7835 20.9323C14.2766 20.4942 13.7955 20.011 13.3402 19.4848L13.338 19.4827Z"/><path fill="#F25730" d="M15.5867 21.469L15.5824 21.4884C15.3182 23.6059 13.542 25.251 10.971 26.6512L11.5982 25.3476C10.127 26.256 8.45381 27.012 6.6561 27.6756C7.17587 25.9833 7.94478 24.2931 8.9607 22.603L7.51307 23.331C8.95855 20.6937 10.6489 18.9091 12.7902 18.6986L12.8096 18.6943C12.8525 18.864 12.9707 19.0487 13.1231 19.2334C13.194 19.3171 13.2628 19.4009 13.3358 19.4825C12.7172 19.9206 12.1201 20.6809 11.5552 21.9093C11.1837 22.676 10.7971 23.389 10.2623 23.9796C10.9539 23.4706 11.6412 23.1184 12.3242 22.8005C13.3465 22.3603 14.1154 21.7053 14.7641 20.9493L14.7791 20.9321C14.8672 21.0094 14.9574 21.0846 15.0454 21.1555C15.2301 21.308 15.4149 21.4261 15.5845 21.469H15.5867Z"/><path fill="#FED607" d="M14.7812 20.9301L14.7662 20.9473C14.1154 21.7032 13.3465 22.3583 12.3263 22.7985C11.6433 23.1164 10.956 23.4686 10.2644 23.9775C10.7992 23.3891 11.1858 22.6739 11.5574 21.9073C12.1244 20.6767 12.7193 19.9164 13.3379 19.4805C13.7954 20.0066 14.2744 20.492 14.7812 20.928V20.9301Z"/><path stroke="#002140" stroke-linecap="round" stroke-linejoin="round" stroke-width=".5" d="M27.9924 6.3418C28.1041 7.82149 27.7626 9.34414 26.7768 10.7079C26.5706 10.9956 26.3343 11.2748 26.068 11.5454"/><path stroke="#002140" stroke-linecap="round" stroke-linejoin="round" stroke-width=".5" d="M18.4068 19.1517L19.1971 18.3657L21.6199 15.9582L26.0658 11.5449"/><path stroke="#002140" stroke-linecap="round" stroke-linejoin="round" stroke-width=".5" d="M27.9925 6.34158C26.5127 6.2299 24.9877 6.57137 23.6239 7.56141C23.3382 7.76758 23.059 8.00382 22.7884 8.27012"/><path stroke="#002140" stroke-linecap="round" stroke-linejoin="round" stroke-width=".5" d="M15.1808 15.9281L15.9669 15.1356L18.3746 12.7131L22.7884 8.26758"/><path stroke="#002140" stroke-linecap="round" stroke-linejoin="round" stroke-width=".5" d="M18.4068 19.1513C18.381 19.1771 18.2414 19.0847 18.0352 18.9129C17.3737 18.361 16.0162 17.0058 15.4449 16.325C15.2581 16.1038 15.155 15.9557 15.1829 15.9277"/><path stroke="#002140" stroke-linecap="round" stroke-linejoin="round" stroke-width=".5" d="M18.0224 17.1911C17.814 16.9806 17.3501 16.5167 17.1418 16.3105"/><path stroke="#002140" stroke-linecap="round" stroke-linejoin="round" stroke-width=".5" d="M15.2624 17.252C15.8123 17.9306 16.4287 18.5448 17.1074 19.0967"/><path stroke="#002140" stroke-linecap="round" stroke-linejoin="round" stroke-width=".5" d="M17.1073 19.0966C17.4102 19.3092 17.7216 19.2469 18.0352 18.9141"/><path stroke="#002140" stroke-linecap="round" stroke-linejoin="round" stroke-width=".5" d="M15.2624 17.2518C15.2431 17.2217 15.2259 17.1917 15.2109 17.1616C15.0756 16.876 15.1529 16.5989 15.4407 16.3262"/><path stroke="#002140" stroke-linecap="round" stroke-linejoin="round" stroke-width=".5" d="M26.7746 10.7074C25.7265 10.2499 24.1028 8.60701 23.6238 7.56113C23.6238 7.55898 23.6238 7.55684 23.6216 7.55469"/><path stroke="#002140" stroke-linecap="round" stroke-linejoin="round" stroke-width=".5" d="M17.1073 19.0957L16.1151 21.2326"/><path stroke="#002140" stroke-linecap="round" stroke-linejoin="round" stroke-width=".5" d="M16.1151 21.2336C15.982 21.4698 15.7972 21.5256 15.5868 21.4698C15.4171 21.4268 15.2324 21.3087 15.0477 21.1562"/><path stroke="#002140" stroke-linecap="round" stroke-linejoin="round" stroke-width=".5" d="M15.185 17.1758L13.048 18.1637"/><path stroke="#002140" stroke-linecap="round" stroke-linejoin="round" stroke-width=".5" d="M13.0481 18.1641C12.8118 18.2972 12.756 18.4819 12.8118 18.6924C12.8548 18.862 12.9729 19.0467 13.1254 19.2314"/><path stroke="#002140" stroke-linecap="round" stroke-linejoin="round" stroke-width=".5" d="M15.0476 21.1563C14.9574 21.0833 14.8693 21.0081 14.7813 20.9329C14.2744 20.4948 13.7933 20.0116 13.3379 19.4854C13.2671 19.4038 13.1962 19.3201 13.1253 19.2363"/><path stroke="#002140" stroke-linecap="round" stroke-linejoin="round" stroke-width=".5" d="M18.0223 17.1912L19.5086 15.7051"/><path stroke="#002140" stroke-linecap="round" stroke-linejoin="round" stroke-width=".5" d="M17.1418 16.3104L18.628 14.8242"/><path stroke="#002140" stroke-linecap="round" stroke-linejoin="round" stroke-width=".5" d="M19.5086 15.7052C20.3892 14.8247 19.5086 13.9442 18.628 14.8247"/><path stroke="#002140" stroke-linecap="round" stroke-linejoin="round" stroke-width=".5" d="M19.195 18.3633L19.1972 18.3654L21.4416 20.6118"/><path stroke="#002140" stroke-linecap="round" stroke-linejoin="round" stroke-width=".5" d="M22.5241 20.4129C23.3252 18.7292 23.0031 17.2495 21.6199 15.9609"/><path stroke="#002140" stroke-linecap="round" stroke-linejoin="round" stroke-width=".5" d="M21.4416 20.6118C22.0065 21.1745 22.2299 20.9275 22.5241 20.4121"/><path stroke="#002140" stroke-linecap="round" stroke-linejoin="round" stroke-width=".5" d="M15.9431 15.1118L13.6944 12.8633"/><path stroke="#002140" stroke-linecap="round" stroke-linejoin="round" stroke-width=".5" d="M13.8964 11.783C15.5781 10.982 17.0579 11.3041 18.3488 12.685"/><path stroke="#002140" stroke-linecap="round" stroke-linejoin="round" stroke-width=".5" d="M13.6944 12.8634C13.1295 12.3008 13.3786 12.0753 13.8941 11.7832"/><path stroke="#002140" stroke-linecap="round" stroke-linejoin="round" stroke-width=".5" d="M15.5824 21.4883C15.3182 23.6058 13.542 25.2509 10.971 26.6511"/><path stroke="#002140" stroke-linecap="round" stroke-linejoin="round" stroke-width=".5" d="M7.51306 23.3316C8.95854 20.6943 10.6489 18.9097 12.7902 18.6992"/><path stroke="#002140" stroke-linecap="round" stroke-linejoin="round" stroke-width=".5" d="M10.971 26.6511L11.5982 25.3496"/><path stroke="#002140" stroke-linecap="round" stroke-linejoin="round" stroke-width=".5" d="M8.96068 22.6035L7.51306 23.3316"/><path stroke="#002140" stroke-linecap="round" stroke-linejoin="round" stroke-width=".5" d="M11.5982 25.3496C10.127 26.258 8.45381 27.014 6.6561 27.6776"/><path stroke="#002140" stroke-linecap="round" stroke-linejoin="round" stroke-width=".5" d="M8.9607 22.6035C7.94263 24.2937 7.17372 25.986 6.6561 27.6761"/><path stroke="#002140" stroke-linecap="round" stroke-linejoin="round" stroke-width=".5" d="M14.7663 20.9492C14.1155 21.7052 13.3466 22.3602 12.3264 22.8004"/><path stroke="#002140" stroke-linecap="round" stroke-linejoin="round" stroke-width=".5" d="M11.5551 21.9096C12.1222 20.679 12.7171 19.9188 13.3357 19.4828C13.3421 19.4785 13.3507 19.4742 13.355 19.4678"/><path stroke="#002140" stroke-linecap="round" stroke-linejoin="round" stroke-width=".5" d="M12.3242 22.8008C11.6412 23.1186 10.9539 23.4708 10.2623 23.9798"/><path stroke="#002140" stroke-linecap="round" stroke-linejoin="round" stroke-width=".5" d="M11.5552 21.9102C11.1837 22.6768 10.7971 23.3899 10.2623 23.9804"/></svg>

<svg xmlns="http://www.w3.org/2000/svg" viewBox="0 0 35 34"><path fill="#f25730" d="M27.992 6.342c.112 1.48-.23 3.002-1.215 4.366-1.048-.457-2.672-2.1-3.151-3.146 1.364-.988 2.887-1.33 4.369-1.22z"/><path fill="#fffaf0" d="m19.197 18.365-.79.786c-.026.026-.166-.066-.372-.238-.661-.552-2.019-1.907-2.59-2.588-.187-.221-.29-.37-.262-.397l.786-.793 2.406-2.424 4.415-4.444q.407-.396.836-.708c.479 1.045 2.103 2.688 3.15 3.146a7 7 0 0 1-.708.837l-4.446 4.414-2.425 2.407zm.312-2.66c.88-.881 0-1.762-.881-.881l-1.486 1.486.88.88z"/><path fill="#f25730" d="M21.62 15.96c1.383 1.288 1.705 2.77.904 4.451-.294.516-.518.765-1.082.2l-2.247-2.247 2.425-2.407zM18.628 14.825c.883-.88 1.763 0 .88.88l-1.486 1.486c-.208-.21-.672-.674-.88-.88zM18.375 12.714l-2.406 2.424-.024-.023-2.248-2.249c-.565-.562-.316-.788.2-1.08 1.681-.801 3.161-.479 4.452.902z"/><path fill="#002140" d="M18.033 18.914q-.47.5-.928.183a12.6 12.6 0 0 1-1.845-1.845 1 1 0 0 1-.051-.09q-.203-.428.23-.836c.573.679 1.928 2.036 2.59 2.588z"/><path fill="#8dc8ff" d="m13.338 19.483-.213-.25c-.152-.184-.27-.369-.313-.538-.056-.21 0-.398.236-.529l2.137-.99.026-.015a1 1 0 0 0 .051.09q.827 1.018 1.845 1.845l-.99 2.137c-.133.236-.318.292-.528.236-.17-.043-.354-.16-.54-.313a13.3 13.3 0 0 1-1.709-1.671z"/><path fill="#f25730" d="m15.587 21.469-.005.02c-.264 2.117-2.04 3.762-4.611 5.162l.627-1.303c-1.471.908-3.144 1.664-4.942 2.328q.78-2.539 2.305-5.073l-1.448.728c1.446-2.637 3.136-4.422 5.277-4.632l.02-.005c.042.17.16.355.313.54q.105.125.213.248c-.619.439-1.216 1.199-1.78 2.427-.372.767-.759 1.48-1.294 2.07.692-.508 1.38-.86 2.062-1.178 1.023-.44 1.791-1.096 2.44-1.852l.015-.017q.133.117.266.224c.185.152.37.27.54.313z"/><path fill="#fed607" d="m14.781 20.93-.015.017c-.65.756-1.42 1.411-2.44 1.852-.683.317-1.37.67-2.062 1.178.535-.588.922-1.303 1.293-2.07.567-1.23 1.162-1.99 1.78-2.427q.685.792 1.444 1.448z"/><path stroke="#002140" stroke-linecap="round" stroke-linejoin="round" stroke-width=".5" d="M27.992 6.342c.112 1.48-.23 3.002-1.215 4.366a7 7 0 0 1-.709.837M18.407 19.152l.79-.786 2.423-2.408 4.446-4.413"/><path stroke="#002140" stroke-linecap="round" stroke-linejoin="round" stroke-width=".5" d="M27.993 6.342c-1.48-.112-3.005.23-4.37 1.22a7 7 0 0 0-.835.708M15.18 15.928l.787-.792 2.408-2.423 4.413-4.445M18.407 19.151c-.026.026-.166-.066-.372-.238-.661-.552-2.019-1.907-2.59-2.588-.187-.221-.29-.37-.262-.397M18.022 17.191c-.208-.21-.672-.674-.88-.88M15.262 17.252q.827 1.018 1.845 1.845M17.107 19.097q.456.317.928-.183M15.262 17.252a1 1 0 0 1-.051-.09q-.202-.428.23-.836"/><path stroke="#002140" stroke-linecap="round" stroke-linejoin="round" stroke-width=".5" d="M26.775 10.707c-1.048-.457-2.672-2.1-3.151-3.146q0-.003-.002-.006M17.107 19.096l-.992 2.137M16.115 21.234c-.133.236-.318.292-.528.236-.17-.043-.355-.161-.54-.314M15.185 17.176l-2.137.988M13.048 18.164c-.236.133-.292.318-.236.528.043.17.16.355.313.54M15.048 21.156q-.135-.11-.267-.223a14 14 0 0 1-1.656-1.697M18.022 17.191l1.487-1.486M17.142 16.31l1.486-1.486M19.509 15.705c.88-.88 0-1.76-.881-.88M19.195 18.363l.002.002 2.245 2.247M22.524 20.413c.801-1.684.48-3.163-.904-4.452"/><path stroke="#002140" stroke-linecap="round" stroke-linejoin="round" stroke-width=".5" d="M21.442 20.612c.564.563.788.316 1.082-.2M15.943 15.112l-2.249-2.249M13.896 11.783c1.682-.801 3.162-.479 4.453.902M13.694 12.863c-.565-.562-.315-.788.2-1.08M15.582 21.488c-.264 2.118-2.04 3.763-4.611 5.163M7.513 23.332c1.446-2.638 3.136-4.422 5.277-4.633M10.971 26.651l.627-1.301M8.96 22.604l-1.447.728M11.598 25.35c-1.471.908-3.144 1.664-4.942 2.328M8.96 22.604q-1.526 2.536-2.304 5.072M14.766 20.95c-.65.755-1.42 1.41-2.44 1.85M11.555 21.91c.567-1.231 1.162-1.991 1.78-2.427q.012-.007.02-.015M12.324 22.8c-.683.319-1.37.67-2.062 1.18M11.555 21.91c-.371.767-.758 1.48-1.293 2.07"/></svg>
